dist/svgs/devui-icons/op/down-config.svg

<svg xmlns="http://www.w3.org/2000/svg" viewBox="0 0 16 16"><path fill-rule="evenodd" d="M13 12h2l-3 3-3-3h2V8h2v4zm2-5h-2V5H3v6h5v2H2a1 1 0 01-1-1V2a1 1 0 011-1h12a1 1 0 011 1v5zM3 3v1h3V3H3zm7 0v1h1V3h-1zm2 0v1h1V3h-1zM4 6h8v1H4V6zm0 2h5v1H4V8z"/></svg>

<?xml version="1.0" encoding="UTF-8"?>
<svg width="16px" height="16px" viewBox="0 0 16 16" version="1.1" xmlns="http://www.w3.org/2000/svg" xmlns:xlink="http://www.w3.org/1999/xlink">
    <title>操作/配置下载</title>
    <desc>Created with Sketch.</desc>
    <g id="操作/配置下载" stroke="none" stroke-width="1" fill="none" fill-rule="evenodd">
        <path d="M13,12 L15,12 L12,15 L9,12 L11,12 L11,8 L13,8 L13,12 Z M15,7 L13,7 L13,5 L3,5 L3,11 L8,11 L8,13 L2,13 C1.44771525,13 1,12.5522847 1,12 L1,2 C1,1.44771525 1.44771525,1 2,1 L14,1 C14.5522847,1 15,1.44771525 15,2 L15,7 Z M3,3 L3,4 L6,4 L6,3 L3,3 Z M10,3 L10,4 L11,4 L11,3 L10,3 Z M12,3 L12,4 L13,4 L13,3 L12,3 Z M4,6 L12,6 L12,7 L4,7 L4,6 Z M4,8 L9,8 L9,9 L4,9 L4,8 Z" id="Combined-Shape" fill="#293040"></path>
    </g>
</svg>
